components/brave_new_tab_ui/components/default/vpn/assets/guardian-logo.svg

<svg width="56" height="12" viewBox="0 0 56 12" fill="none" xmlns="http://www.w3.org/2000/svg">
<path fill-rule="evenodd" clip-rule="evenodd" d="M3.61147 9.57358C4.29294 10.3023 4.97844 10.8268 5.49649 11.1713L6.00176 11.4897C6.14321 11.5765 6.38143 11.7219 6.53846 11.7888L7.03397 12L8.04531 11.4153L8.04913 11.413C8.37176 11.2229 8.80862 10.9376 9.28965 10.545C10.2487 9.76241 11.3566 8.52594 12.1148 6.7485L12.2555 6.34018C12.4022 5.88107 12.7004 4.94079 12.7192 4.85254C12.8776 4.12301 12.9757 3.45111 12.959 2.53815L12.9465 1.85617L12.4551 1.54629C8.29652 -1.22514 3.46159 0.351515 1.56394 1.48628C1.48198 1.53432 1.14279 1.74392 0.983444 1.84272L0.964994 2.52722C0.876922 5.7957 2.23783 8.10476 3.61147 9.57358ZM8.60848 9.71147C9.47241 9.00645 10.5064 7.90674 11.1786 6.33092V6.18658L11.129 6.11571C9.4191 4.62621 7.8528 4.41094 6.80608 4.50294C6.45028 4.5342 6.1545 4.60095 5.93355 4.66524L5.73842 4.72202L5.8092 4.91156C5.87308 5.08258 5.98637 5.34366 6.12032 5.60038C6.14001 5.63809 6.16033 5.67611 6.18122 5.71406C6.30028 5.93038 6.43751 6.14475 6.57583 6.28806L6.64526 6.36002L6.74411 6.34333C7.05167 6.29141 7.31475 6.28869 7.53829 6.31504C7.80131 6.34603 8.00961 6.41726 8.17125 6.49588C8.21632 6.5178 8.25806 6.54045 8.29667 6.56323C8.38742 6.61678 8.46081 6.67101 8.51887 6.71805C8.53187 6.72859 8.54406 6.73875 8.55557 6.7485C7.81577 7.78099 7.20836 8.27848 6.97177 8.44761C4.83105 6.72467 4.25109 4.41746 4.13194 3.81444C6.18508 3.07854 7.64874 3.09146 8.75679 3.38454C9.51941 3.58626 10.1205 3.92113 10.6439 4.25679C10.6903 4.28653 10.7361 4.31629 10.7813 4.34597C10.847 4.38906 10.9115 4.43199 10.975 4.47444C11.0059 4.49507 11.0366 4.5156 11.0671 4.53598C11.173 4.60691 11.2764 4.67612 11.378 4.74225L11.5763 4.91156L11.6667 4.62439C11.688 4.52627 11.7081 4.42995 11.7266 4.33449C11.7383 4.27476 11.7493 4.21539 11.7598 4.15609C11.7838 4.01985 11.8048 3.8841 11.8223 3.74599C11.8683 3.38344 11.8904 3.00459 11.8823 2.55782L11.8804 2.45646L11.7943 2.40221C6.91003 -0.677479 2.65018 2.0738 2.19172 2.36916C2.17706 2.37861 2.13806 2.39687 2.13135 2.40101L2.04427 2.45447L2.04154 2.55619C1.96273 5.48031 3.17128 7.52672 4.39828 8.83875C5.01097 9.49391 5.62837 9.9663 6.09302 10.2752C6.32711 10.4262 6.82841 10.7424 6.96097 10.7989L7.50216 10.486C7.78564 10.3189 8.17629 10.0642 8.60848 9.71147Z" fill="white"/>
<path fill-rule="evenodd" clip-rule="evenodd" d="M19.1335 2.39978C16.9259 2.39978 15.3613 3.89337 15.3613 6.00227C15.3613 8.1707 17.0069 9.59978 19.1183 9.59978C20.9411 9.59978 22.5613 8.29475 22.5613 6.07173C22.5613 5.90303 22.5512 5.73431 22.5259 5.55071H19.1233V6.83093H20.8499C20.6525 7.64968 20.0651 8.08634 19.0575 8.08634C18.0044 8.08634 17.1031 7.33706 17.1031 6.00227C17.1031 4.79152 17.9183 3.95788 19.0525 3.95788C19.7107 3.95788 20.212 4.19606 20.5664 4.56821L21.7715 3.40709C21.1537 2.7769 20.2575 2.39978 19.1335 2.39978ZM44.6756 3.34487C44.6756 3.80102 44.3545 4.11407 43.8997 4.11407C43.4494 4.11407 43.1328 3.80102 43.1328 3.34487C43.1328 2.88872 43.4449 2.57121 43.8997 2.57121C44.3545 2.57121 44.6756 2.88425 44.6756 3.34487ZM44.6756 4.79978H43.1328V9.59978H44.6756V4.79978ZM35.3842 5.51755V4.79983H33.8756V9.59978H35.3842V7.26192C35.3842 6.41112 35.9886 6.10217 36.5931 6.10217C36.8482 6.07641 37.2056 6.15797 37.3042 6.20198V4.89489C37.1811 4.81601 36.8568 4.79865 36.7098 4.79983C36.146 4.79983 35.6127 5.06601 35.3842 5.51755ZM33.1899 9.59978V4.79978H31.6846V5.36824C31.4131 5.04664 30.9047 4.79978 30.2384 4.79978C28.9749 4.79978 28.047 5.82698 28.047 7.20458C28.047 8.58218 28.9749 9.59978 30.2384 9.59978C30.9047 9.59978 31.4131 9.4573 31.6846 9.13091V9.59978H33.1899ZM30.6086 6.14378C31.2107 6.14858 31.6303 6.58058 31.6303 7.20458C31.6303 7.82858 31.2107 8.26538 30.6086 8.26538C30.0065 8.26538 29.5869 7.82858 29.5869 7.20458C29.5869 6.58058 30.0065 6.14378 30.6086 6.14378ZM50.3328 4.79978V9.59978H48.8274V9.13091C48.5559 9.4573 48.0476 9.59978 47.3813 9.59978C46.1178 9.59978 45.1899 8.58218 45.1899 7.20458C45.1899 5.82698 46.1178 4.79978 47.3813 4.79978C48.0476 4.79978 48.5559 5.04664 48.8274 5.36824V4.79978H50.3328ZM48.7731 7.20458C48.7731 6.58058 48.3536 6.14858 47.7514 6.14378C47.1493 6.14378 46.7298 6.58058 46.7298 7.20458C46.7298 7.82858 47.1493 8.26538 47.7514 8.26538C48.3536 8.26538 48.7731 7.82858 48.7731 7.20458ZM42.447 9.59978V2.57121H40.9417V5.42927C40.6702 5.11229 40.1619 4.869 39.4956 4.869C38.2321 4.869 37.3042 5.88139 37.3042 7.23912C37.3042 8.59685 38.2321 9.59978 39.4956 9.59978C40.1619 9.59978 40.6702 9.45936 40.9417 9.13766V9.59978H42.447ZM39.8657 6.19363C40.4679 6.19836 40.8874 6.62412 40.8874 7.23912C40.8874 7.85412 40.4679 8.28463 39.8657 8.28463C39.2636 8.28463 38.8441 7.85412 38.8441 7.23912C38.8441 6.62412 39.2636 6.19363 39.8657 6.19363ZM26.0263 7.42019V4.79978H27.5328V7.53773C27.5328 8.73285 26.6385 9.59978 25.2803 9.59978C23.9221 9.59978 23.0756 8.73285 23.0756 7.56713V4.79978H24.5821V7.42019C24.5821 7.88549 24.8833 8.19407 25.2803 8.19407C25.7298 8.19407 26.0263 7.8904 26.0263 7.42019ZM55.4756 6.54345V9.59978H53.9982V6.98428C53.9982 6.46019 53.5289 6.2104 53.1589 6.2104C52.7744 6.2104 52.2536 6.46019 52.2536 6.98428V9.59978H50.847V4.79978H52.2536V5.39243C52.5847 4.97121 53.1978 4.79978 53.7478 4.79978C54.6288 4.79978 55.4756 5.42183 55.4756 6.54345Z" fill="white"/>
</svg>

<svg width="56" height="12" viewBox="0 0 56 12" fill="none" xmlns="http://www.w3.org/2000/svg"><path fill-rule="evenodd" clip-rule="evenodd" d="M3.611 9.574a10.8 10.8 0 0 0 1.885 1.597l.506.319c.141.086.38.232.536.299l.496.211 1.011-.585.004-.002a10 10 0 0 0 1.24-.868 9.9 9.9 0 0 0 2.826-3.796l.14-.409c.147-.459.445-1.4.464-1.487.159-.73.257-1.402.24-2.315l-.012-.682-.492-.31C8.297-1.225 3.462.352 1.564 1.486a55 55 0 0 0-.58.357l-.019.684C.877 5.796 2.238 8.105 3.611 9.574m4.997.137c.864-.705 1.898-1.804 2.57-3.38v-.144l-.049-.071c-1.71-1.49-3.276-1.705-4.323-1.613a4.6 4.6 0 0 0-.872.162l-.196.057.071.19a7 7 0 0 0 .372.802c.12.216.257.43.395.574l.07.072.098-.017c.308-.052.57-.054.794-.028a2 2 0 0 1 .759.248 2 2 0 0 1 .259.186c-.74 1.032-1.348 1.53-1.584 1.699-2.141-1.723-2.72-4.03-2.84-4.634 2.053-.735 3.517-.723 4.625-.43.762.202 1.364.537 1.887.873a15 15 0 0 1 .331.217l.092.062.311.206.198.17.09-.288a13 13 0 0 0 .094-.468q.036-.204.062-.41c.046-.363.068-.741.06-1.188l-.002-.102-.086-.054C6.91-.678 2.65 2.074 2.192 2.37c-.015.01-.054.028-.06.032l-.088.053-.002.102c-.08 2.924 1.13 4.97 2.356 6.283a9.7 9.7 0 0 0 1.695 1.436c.234.151.735.467.868.524l.541-.313a9 9 0 0 0 1.106-.775M19.134 2.4c-2.208 0-3.773 1.493-3.773 3.602 0 2.169 1.646 3.598 3.757 3.598 1.823 0 3.443-1.305 3.443-3.528 0-.169-.01-.338-.035-.521h-3.403v1.28h1.727c-.198.819-.785 1.255-1.793 1.255-1.053 0-1.954-.749-1.954-2.084 0-1.21.815-2.044 1.95-2.044.658 0 1.159.238 1.513.61l1.206-1.16c-.618-.631-1.514-1.008-2.638-1.008m25.542.945c0 .456-.322.77-.776.77-.45 0-.767-.314-.767-.77s.312-.774.767-.774.776.313.776.774m0 1.455h-1.543v4.8h1.543zm-9.292.718V4.8h-1.508v4.8h1.508V7.262c0-.85.605-1.16 1.21-1.16.254-.026.612.056.71.1V4.895c-.123-.079-.447-.096-.594-.095-.564 0-1.097.266-1.326.718M33.19 9.6V4.8h-1.505v.568c-.272-.321-.78-.568-1.447-.568-1.263 0-2.191 1.027-2.191 2.405S28.975 9.6 30.238 9.6c.667 0 1.175-.143 1.447-.47v.47zm-2.581-3.456c.602.005 1.021.437 1.021 1.06 0 .625-.42 1.061-1.021 1.061-.603 0-1.022-.436-1.022-1.06s.42-1.061 1.022-1.061M50.333 4.8v4.8h-1.506v-.47c-.271.327-.78.47-1.446.47-1.263 0-2.191-1.018-2.191-2.395S46.118 4.8 47.38 4.8c.667 0 1.175.247 1.446.568V4.8zm-1.56 2.405c0-.624-.42-1.056-1.022-1.061-.602 0-1.021.437-1.021 1.06 0 .625.42 1.061 1.021 1.061.603 0 1.022-.436 1.022-1.06M42.447 9.6V2.57h-1.505v2.86c-.272-.317-.78-.56-1.446-.56-1.264 0-2.192 1.012-2.192 2.37s.928 2.36 2.192 2.36c.666 0 1.174-.14 1.446-.461V9.6zm-2.581-3.406c.602.004 1.021.43 1.021 1.045s-.42 1.046-1.021 1.046c-.602 0-1.022-.43-1.022-1.046 0-.615.42-1.045 1.022-1.045M26.026 7.42V4.8h1.507v2.738c0 1.195-.895 2.062-2.253 2.062s-2.204-.867-2.204-2.033V4.8h1.506v2.62c0 .465.301.774.698.774.45 0 .746-.304.746-.774m29.45-.877V9.6h-1.478V6.984c0-.524-.47-.774-.84-.774-.384 0-.904.25-.904.774V9.6h-1.407V4.8h1.407v.592c.33-.42.944-.592 1.494-.592.88 0 1.728.622 1.728 1.743" fill="#fff"/></svg>
